X:1
T:Title
%%score { ( 1 3 ) | ( 2 4 ) }
L:1/8
Q:1/4=100
M:2/4
K:Ab
V:1 treble nm="Grand Piano"
V:3 treble 
V:2 bass 
V:4 bass 
V:1
 [CA][CE] [EA]B | c2 [EA]2 | [FA][FA] [EG][DF] | [CE]4 | [CA][CE] [EA][EB] | [Ec]2 [CEA]2 | %6
w: J.~J.~Jelley * * *||||||
 [B,EG][A,=DF] ED | E4 | BB cc | d2 B2 | [Ec][EA] [Ed][Ec] | B4 | [CA][CE] [EA][EB] | %13
w: |||||||
 [Ec]2 [CEB][A,E] | [A,DF][Fd] [Ec][DB] | [CA]4 |] %16
w: |||
V:2
 [A,,A,][A,,A,] [C,A,][E,G,E] | [A,E]2 [C,A,]2 | [D,A,][D,A,] [D,A,][D,A,] | [A,,A,]4 | %4
 [A,,A,][A,,A,] [C,A,][E,G,] | A,2 A,,2 | B,,B,, [B,,G,][B,,F,B,] | [E,G,B,]4 | %8
 [E,G,E][E,G,E] [E,A,E][E,A,E] | [E,B,E]2 [E,G,E]2 | [A,,A,][C,A,] [B,,G,][A,,A,] | E2 z2 | %12
 [A,,A,][A,,A,] [A,,A,][E,G,] | A,2 A,,C, | D,[D,A,] [E,A,][E,G,] | [A,,A,]4 |] %16
V:3
 x4 | x4 | x4 | x4 | x4 | x4 | x4 | x4 | x4 | x4 | x4 | z2 D2 | x4 | x4 | x4 | x4 |] %16
V:4
 x4 | x4 | x4 | x4 | x4 | x4 | x4 | x4 | x4 | x4 | x4 | [E,G,]4 | x4 | x4 | x4 | x4 |] %16

